X:72
T:Jackson's Bottle of Brandy
Z: id:dc-jig-60
M:6/8
L:1/8
K:G Major
G2e dBG|B3 dBA|G2e dBG|A3 BGE|!
G2e dBG|B3 def|gfe dBG|A3 BGE:|!
g3 f3|e3 def|g3 efg|a3 bge|!
g3 f3|e3 def|gfe dBG|A3 BGE:|!

